m24.cube
# Created by: G'MIC (https://gmic.eu)
TITLE "m24"
# LUT size
LUT_3D_SIZE 32
# Data domain
DOMAIN_MIN 0.0 0.0 0.0
DOMAIN_MAX 1.0 1.0 1.0
# LUT data points
0.00010846022632904351 0.00010846022632904351 0.00010846022632904351
0.0004587486619129777 0.00010846023360500112 0.00010846023360500112
0.00080903759226202965 0.00010846023360500112 0.00010846023360500112
0.0011593170929700136 0.00010846023360500112 0.00010846023360500112
0.0015097416471689939 0.00010846022632904351 0.00010846022632904351
0.001859283191151917 0.00010846023360500112 0.00010846023360500112
0.0021727883722633123 0.00010846023360500112 0.00010846023360500112
0.003698054002597928 0.00010846023360500112 0.00010846023360500112
0.0066194580867886543 0.00010846023360500112 0.00010846023360500112
0.0082380091771483421 0.00010846023360500112 0.00010846023360500112
0.012335949577391148 0.00010846023360500112 0.00010846023360500112
0.016525581479072571 0.00010846023360500112 0.00010846023360500112
0.021891646087169647 0.00010846023360500112 0.00010846023360500112
0.029829675331711769 0.00010846023360500112 0.00010846023360500112
0.039071880280971527 0.00010846023360500112 0.00010846023360500112
0.050850588828325272 0.00010846023360500112 0.00010846023360500112
0.065109893679618835 0.00010846023360500112 0.00010846023360500112
0.084550462663173676 0.00010846023360500112 0.00010846023360500112
0.10539037734270096 0.00010846023360500112 0.00010846023360500112
0.12997238337993622 0.00010846023360500112 0.00010846023360500112
0.15813876688480377 0.00010846023360500112 0.00010846023360500112
0.19833900034427643 9.4272312708199024e-05 9.4272312708199024e-05
0.24914102256298065 0.00010846022632904351 0.00010846022632904351
0.29826006293296814 0.00010846021905308589 0.00010846021905308589
0.3547416627407074 0.00010846024088095874 0.00010846024088095874
0.41635668277740479 0.00010846021905308589 0.00010846021905308589
0.48742949962615967 0.00010846023360500112 0.00010846023360500112
0.56726741790771484 0.00010846023360500112 0.00010846023360500112
0.6549641489982605 0.00010846023360500112 0.00010846023360500112
0.75356638431549072 0.00010846023360500112 0.00010846023360500112
0.86043655872344971 0.00010846023360500112 0.00010846023360500112
0.89118432998657227 0.00015230949793476611 0.00015230949793476611
0.00010846023360500112 0.0004587486619129777 0.00010846023360500112
0.00045874869101680815 0.00045874869101680815 0.00010846022632904351
0.0008090369519777596 0.0004587486619129777 0.00010846022632904351
0.0011593239614740014 0.00045874860370531678 0.00010846022632904351
0.0015097358264029026 0.00045874869101680815 0.00010846022632904351
0.0018579111201688647 0.0004587486619129777 0.00010846023360500112
0.0021951606031507254 0.0004587486619129777 0.00010846022632904351
0.0036738165654242039 0.0004587486619129777 0.00010846022632904351
0.0066412473097443581 0.0004587486619129777 0.00010846022632904351
0.0082372324541211128 0.0004587486619129777 0.00010846022632904351
0.01233348436653614 0.0004587486619129777 0.00010846022632904351
0.016546588391065598 0.0004587486619129777 0.00010846022632904351
0.021888410672545433 0.0004587486619129777 0.00010846022632904351
0.029849590733647346 0.0004587486619129777 0.00010846022632904351
0.039067268371582031 0.0004587486619129777 0.00010846022632904351
0.050891496241092682 0.0004587486619129777 0.00010846022632904351
0.065104790031909943 0.0004587486619129777 0.00010846022632904351
0.08456796407699585 0.0004587486619129777 0.00010846022632904351
0.10540808737277985 0.0004587486619129777 0.00010846022632904351
0.12997664511203766 0.0004587486619129777 0.00010846022632904351
0.15836459398269653 0.0004587486619129777 0.00010846022632904351
0.19840751588344574 0.00036100827855989337 9.4272312708199024e-05
0.24923472106456757 0.0004587486619129777 0.00010846023360500112
0.29829144477844238 0.00045874877832829952 0.00010846022632904351
0.35475951433181763 0.00045874851639382541 0.00010846024088095874
0.41641408205032349 0.00045874872012063861 0.00010846021905308589
0.4874577522277832 0.0004587486619129777 0.00010846023360500112
0.56730258464813232 0.0004587486619129777 0.00010846022632904351
0.65503400564193726 0.0004587486619129777 0.00010846022632904351
0.75352334976196289 0.0004587486619129777 0.00010846022632904351
0.85976344347000122 0.0004587486619129777 0.00010846022632904351
0.88997280597686768 0.00071589602157473564 0.00015230949793476611
0.00010846023360500112 0.00080903759226202965 0.00010846023360500112
0.0004587486619129777 0.00080903689377009869 0.00010846023360500112
0.00080903701018542051 0.00080903701018542051 0.00010846023360500112
0.0011593304807320237 0.00080903799971565604 0.00010846023360500112
0.0015095918206498027 0.00080903701018542051 0.00010846023360500112
0.0018592630513012409 0.00080903741763904691 0.00010846023360500112
0.0021930783987045288 0.00080903735943138599 0.00010846023360500112
0.0036757530178874731 0.00080903735943138599 0.00010846023360500112
0.0066404175013303757 0.00080903735943138599 0.00010846023360500112
0.0082371849566698074 0.00080903735943138599 0.00010846023360500112
0.012334599159657955 0.00080903735943138599 0.00010846023360500112
0.016545703634619713 0.00080903735943138599 0.00010846023360500112
0.021889621391892433 0.00080903735943138599 0.00010846023360500112
0.029848469421267509 0.00080903735943138599 0.00010846023360500112
0.039069674909114838 0.00080903735943138599 0.00010846023360500112
0.050889778882265091 0.00080903735943138599 0.00010846023360500112
0.065105825662612915 0.00080903735943138599 0.00010846023360500112
0.084568127989768982 0.00080903735943138599 0.00010846023360500112
0.10540716350078583 0.00080903735943138599 0.00010846023360500112
0.12998805940151215 0.00080903741763904691 0.00010846023360500112
0.15836836397647858 0.00080903741763904691 0.00010846023360500112
0.19840987026691437 0.0006277445936575532 9.4272312708199024e-05
0.24923652410507202 0.00080903794150799513 0.00010846023360500112
0.29829174280166626 0.0008090356714092195 0.00010846021905308589
0.35476163029670715 0.00080903846537694335 0.00010846024088095874
0.41641384363174438 0.00080903712660074234 0.00010846021905308589
0.48745822906494141 0.00080903730122372508 0.00010846023360500112
0.56730502843856812 0.00080903735943138599 0.00010846023360500112
0.65503144264221191 0.00080903735943138599 0.00010846023360500112
0.7534903883934021 0.00080903735943138599 0.00010846023360500112
0.85975140333175659 0.00080903747584670782 0.00010846023360500112
0.88994157314300537 0.0012794827343896031 0.00015230949793476611
0.00010846023360500112 0.0011593170929700136 0.00010846023360500112
0.00045874860370531678 0.0011593239614740014 0.00010846022632904351
0.00080903799971565604 0.0011593304807320237 0.00010846023360500112
0.0011593180242925882 0.0011593181407079101 0.00010846023360500112
0.0015096776187419891 0.0011593238450586796 0.00010846021905308589
0.0018590920371934772 0.0011593226809054613 0.00010846023360500112
0.0021932621020823717 0.001159322913736105 0.00010846023360500112
0.0036756347399204969 0.001159322913736105 0.00010846023360500112
0.0066404463723301888 0.001159322913736105 0.00010846023360500112
0.008237241767346859 0.001159322913736105 0.00010846023360500112
0.012334509752690792 0.001159322913736105 0.00010846023360500112
0.016545802354812622 0.001159322913736105 0.00010846023360500112
0.021889502182602882 0.001159322913736105 0.00010846023360500112
0.029848646372556686 0.001159322913736105 0.00010846023360500112
0.039069473743438721 0.001159322913736105 0.00010846023360500112
0.050889894366264343 0.001159322913736105 0.00010846023360500112
0.065105795860290527 0.001159322913736105 0.00010846023360500112
0.084568038582801819 0.001159322913736105 0.00010846023360500112
0.10540778189897537 0.0011593230301514268 0.00010846023360500112
0.12998782098293304 0.0011593224480748177 0.00010846023360500112
0.15836842358112335 0.0011593226809054613 0.00010846023360500112
0.19840990006923676 0.00089447677601128817 9.4272312708199024e-05
0.24923647940158844 0.0011593087110668421 0.00010846023360500112
0.29829186201095581 0.0011593390954658389 0.00010846021905308589
0.3547615110874176 0.0011593190720304847 0.00010846024088095874
0.41641384363174438 0.0011593219824135303 0.00010846021905308589
0.48745834827423096 0.0011593231465667486 0.00010846023360500112
0.56730484962463379 0.0011593227973207831 0.00010846022632904351
0.65502971410751343 0.0011593230301514268 0.00010846023360500112
0.75349104404449463 0.001159322215244174 0.00010846023360500112
0.85975199937820435 0.0011593218659982085 0.00010846022632904351
0.88994342088699341 0.0018430643249303102 0.00015230949793476611
0.00010846022632904351 0.0015097417635843158 0.00010846023360500112
0.00045874869101680815 0.0015097358264029026 0.00010846021905308589
0.00080903701018542051 0.0015095918206498027 0.00010846023360500112
0.0011593237286433578 0.0015096776187419891 0.00010846023360500112
0.0015096644638106227 0.0015096644638106227 0.00010846023360500112
0.0018591086845844984 0.0015096659772098064 0.00010846023360500112
0.0021932485979050398 0.0015096657443791628 0.00010846023360500112
0.0036756405606865883 0.0015096658607944846 0.00010846023360500112
0.006640448234975338 0.0015096657443791628 0.00010846023360500112
0.0082372343167662621 0.0015096657443791628 0.00010846023360500112
0.012334517203271389 0.0015096657443791628 0.00010846023360500112
0.016545789316296577 0.0015096657443791628 0.00010846023360500112
0.021889518946409225 0.0015096657443791628 0.00010846023360500112
0.029848625883460045 0.0015096657443791628 0.00010846023360500112
0.039069484919309616 0.0015096657443791628 0.00010846023360500112
0.050889883190393448 0.0015096657443791628 0.00010846023360500112
0.06510578840970993 0.0015096657443791628 0.00010846023360500112
0.0845680832862854 0.0015096658607944846 0.00010846023360500112
0.10540774464607239 0.00150966492947191 0.00010846023360500112
0.12998782098293304 0.0015096731949597597 0.00010846023360500112
0.15836842358112335 0.0015096374554559588 0.00010846023360500112
0.19840991497039795 0.0011612243251875043 9.4272312708199024e-05
0.24923647940158844 0.0015098809963092208 0.00010846023360500112
0.29829186201095581 0.0015095897251740098 0.00010846021905308589
0.3547615110874176 0.0015096492134034634 0.00010846023360500112
0.41641390323638916 0.0015096699353307486 0.00010846021905308589
0.48745834827423096 0.0015096652787178755 0.00010846023360500112
0.56730479001998901 0.0015096659772098064 0.00010846023360500112
0.65502983331680298 0.0015096650458872318 0.00010846023360500112
0.75349104404449463 0.0015096717979758978 0.00010846023360500112
0.85975199937820435 0.0015096446732059121 0.00010846023360500112
0.88994342088699341 0.0024067703634500504 0.00015230949793476611
0.00010846023360500112 0.001859283191151917 0.00010846024088095874
0.0004587486619129777 0.0018579111201688647 0.00010846023360500112
0.00080903741763904691 0.0018592630513012409 0.00010846023360500112
0.0011593227973207831 0.0018590920371934772 0.00010846022632904351
0.0015096659772098064 0.0018591088009998202 0.00010846022632904351
0.0018591074040159583 0.0018591074040159583 0.00010846023360500112
0.0021932492963969707 0.0018591075204312801 0.00010846022632904351
0.0036756405606865883 0.0018591074040159583 0.00010846023360500112
0.0066404477693140507 0.0018591074040159583 0.00010846023360500112
0.0082372352480888367 0.0018591074040159583 0.00010846023360500112
0.012334516271948814 0.0018591074040159583 0.00010846023360500112
0.016545793041586876 0.0018591074040159583 0.00010846023360500112
0.021889515221118927 0.0018591074040159583 0.00010846023360500112
0.029848629608750343 0.0018591074040159583 0.00010846023360500112
0.039069484919309616 0.0018591074040159583 0.00010846023360500112
0.050889886915683746 0.0018591074040159583 0.00010846023360500112
0.06510578840970993 0.0018591074040159583 0.00010846023360500112
0.084568068385124207 0.0018591070547699928 0.00010846023360500112
0.10540774464607239 0.0018591119442135096 0.00010846023360500112
0.12998783588409424 0.0018590482650324702 0.00010846023360500112
0.15836842358112335 0.0018597252201288939 0.00010846023360500112
0.19840990006923676 0.0014291248517110944 9.4272312708199024e-05
0.24923647940158844 0.0018575317226350307 0.00010846024088095874
0.29829186201095581 0.0018587918020784855 0.00010846022632904351
0.3547615110874176 0.0018591670086607337 0.00010846024088095874
0.41641384363174438 0.0018591004190966487 0.00010846022632904351
0.48745834827423096 0.0018591081025078893 0.00010846024088095874
0.56730479001998901 0.0018591071711853147 0.00010846022632904351
0.6550297737121582 0.0018591085681691766 0.00010846023360500112
0.75349104404449463 0.0018590807449072599 0.00010846023360500112
0.85975199937820435 0.0018598788883537054 0.00010846022632904351
0.88994336128234863 0.0029687450733035803 0.00015230949793476611
0.00010846023360500112 0.0021727883722633123 0.00010846023360500112
0.0004587486619129777 0.0021951606031507254 0.00010846022632904351
0.00080903735943138599 0.0021930783987045288 0.00010846023360500112
0.001159322913736105 0.0021932621020823717 0.00010846022632904351
0.0015096657443791628 0.0021932485979050398 0.00010846022632904351
0.0018591074040159583 0.0021932492963969707 0.00010846022632904351
0.0021932492963969707 0.0021932492963969707 0.00010846022632904351
0.0036756405606865883 0.0021932495292276144 0.00010846022632904351
0.006640448234975338 0.0021932495292276144 0.00010846022632904351
0.0082372352480888367 0.0021932495292276144 0.00010846022632904351
0.012334517203271389 0.0021932495292276144 0.00010846022632904351
0.016545793041586876 0.0021932495292276144 0.00010846022632904351
0.021889515221118927 0.0021932495292276144 0.00010846022632904351
0.029848629608750343 0.0021932495292276144 0.00010846022632904351
0.039069484919309616 0.0021932495292276144 0.00010846022632904351
0.050889886915683746 0.0021932495292276144 0.00010846022632904351
0.06510578840970993 0.0021932490635663271 0.00010846022632904351
0.084568068385124207 0.0021932506933808327 0.00010846022632904351
0.10540774464607239 0.0021932304371148348 0.00010846022632904351
0.12998783588409424 0.0021934551186859608 0.00010846023360500112
0.15836842358112335 0.0021926956251263618 0.00010846022632904351
0.19840990006923676 0.0016467532841488719 9.4272312708199024e-05
0.24923647940158844 0.0021868920885026455 0.00010846023360500112
0.29829186201095581 0.0021940821316093206 0.00010846021905308589
0.3547615110874176 0.0021931640803813934 0.00010846024088095874
0.41641384363174438 0.0021932562813162804 0.00010846021905308589
0.48745834827423096 0.0021932488307356834 0.00010846023360500112
0.56730479001998901 0.0021932495292276144 0.00010846022632904351
0.65502983331680298 0.0021932462695986032 0.00010846022632904351
0.75349104404449463 0.0021934045944362879 0.00010846022632904351
0.85975199937820435 0.0021867209579795599 0.00010846022632904351
0.88994348049163818 0.0034867844078689814 0.00015230949793476611
0.00010846023360500112 0.0036980542354285717 0.00010846023360500112
0.0004587486619129777 0.0036738165654242039 0.00010846022632904351
0.00080903741763904691 0.0036757530178874731 0.00010846023360500112
0.001159322913736105 0.0036756347399204969 0.00010846022632904351
0.0015096657443791628 0.0036756405606865883 0.00010846022632904351
0.0018591074040159583 0.0036756405606865883 0.00010846022632904351
0.0021932492963969707 0.0036756405606865883 0.00010846022632904351
0.0036756405606865883 0.0036756405606865883 0.00010846022632904351
0.006640448234975338 0.0036756405606865883 0.00010846022632904351
0.0082372352480888367 0.0036756405606865883 0.00010846022632904351
0.012334517203271389 0.0036756405606865883 0.00010846022632904351
0.016545793041586876 0.0036756405606865883 0.00010846022632904351
0.021889515221118927 0.0036756405606865883 0.00010846022632904351
0.029848627746105194 0.0036756405606865883 0.00010846022632904351
0.039069484919309616 0.0036756405606865883 0.00010846022632904351
0.050889886915683746 0.0036756405606865883 0.00010846022632904351
0.06510578840970993 0.0036756407935172319 0.00010846022632904351
0.084568068385124207 0.0036756384652107954 0.00010846022632904351
0.10540775209665298 0.0036756542976945639 0.00010846022632904351
0.12998782098293304 0.0036756419576704502 0.00010846023360500112
0.15836842358112335 0.0036729867570102215 0.00010846022632904351
0.19840990006923676 0.0030520071741193533 9.4272312708199024e-05
0.24923647940158844 0.0036843910347670317 0.00010846023360500112
0.29829186201095581 0.0036746731493622065 0.00010846021905308589
0.3547615110874176 0.0036757118068635464 0.00010846024088095874
0.41641384363174438 0.0036756363697350025 0.00010846021905308589
0.48745834827423096 0.0036756403278559446 0.00010846023360500112
0.56730479001998901 0.0036756384652107954 0.00010846022632904351
0.65502983331680298 0.0036756806075572968 0.00010846022632904351
0.75349104404449463 0.0036748398561030626 0.00010846022632904351
0.85975199937820435 0.0036894320510327816 0.00010846022632904351
0.88994342088699341 0.0054141627624630928 0.00015230949793476611
0.00010846023360500112 0.0066194585524499416 0.00010846023360500112
0.0004587486619129777 0.0066412468440830708 0.00010846022632904351
0.00080903741763904691 0.0066404175013303757 0.00010846023360500112
0.001159322913736105 0.0066404463723301888 0.00010846022632904351
0.0015096657443791628 0.006640448234975338 0.00010846022632904351
0.0018591074040159583 0.0066404477693140507 0.00010846022632904351
0.0021932492963969707 0.0066404477693140507 0.00010846022632904351
0.0036756405606865883 0.0066404477693140507 0.00010846022632904351
0.0066404473036527634 0.0066404477693140507 0.00010846022632904351
0.0082372352480888367 0.006640448234975338 0.00010846022632904351
0.012334517203271389 0.0066404477693140507 0.00010846022632904351
0.016545793041586876 0.0066404477693140507 0.00010846022632904351
0.021889515221118927 0.0066404477693140507 0.00010846022632904351
0.029848629608750343 0.006640448234975338 0.00010846022632904351
0.039069484919309616 0.006640448234975338 0.00010846022632904351
0.050889886915683746 0.0066404477693140507 0.00010846022632904351
0.06510578840970993 0.0066404477693140507 0.00010846022632904351
0.084568068385124207 0.006640448234975338 0.00010846022632904351
0.10540774464607239 0.0066404612734913826 0.00010846022632904351
0.12998782098293304 0.0066401958465576172 0.00010846023360500112
0.15836842358112335 0.0066438121721148491 0.00010846022632904351
0.19840990006923676 0.0059980535879731178 9.4272312708199024e-05
0.24923647940158844 0.0066308495588600636 0.00010846023360500112
0.29829186201095581 0.0066410400904715061 0.00010846021905308589
0.3547615110874176 0.0066404156386852264 0.00010846024088095874
0.41641384363174438 0.006640448234975338 0.00010846021905308589
0.48745834827423096 0.006640448234975338 0.00010846023360500112
0.56730479001998901 0.0066404528915882111 0.00010846022632904351
0.6550297737121582 0.0066403644159436226 0.00010846022632904351
0.75349104404449463 0.0066414712928235531 0.00010846022632904351
0.85975199937820435 0.0066272071562707424 0.00010846022632904351
0.88994342088699341 0.0081420391798019409 0.00015230949793476611
0.00010846023360500112 0.0082380091771483421 0.00010846023360500112
0.0004587486619129777 0.0082372324541211128 0.00010846022632904351
0.00080903741763904691 0.0082371849566698074 0.00010846023360500112
0.001159322913736105 0.0082372408360242844 0.00010846022632904351
0.0015096657443791628 0.0082372343167662621 0.00010846022632904351
0.0018591074040159583 0.0082372352480888367 0.00010846022632904351
0.0021932492963969707 0.0082372343167662621 0.00010846022632904351
0.0036756405606865883 0.0082372343167662621 0.00010846022632904351
0.006640448234975338 0.0082372343167662621 0.00010846022632904351
0.0082372352480888367 0.0082372352480888367 0.00010846022632904351
0.012334517203271389 0.0082372352480888367 0.00010846022632904351
0.016545793041586876 0.0082372352480888367 0.00010846022632904351
0.021889515221118927 0.0082372343167662621 0.00010846022632904351
0.029848629608750343 0.0082372352480888367 0.00010846022632904351
0.039069484919309616 0.0082372343167662621 0.00010846022632904351
0.050889886915683746 0.0082372343167662621 0.00010846022632904351
0.06510578840970993 0.0082372343167662621 0.00010846022632904351
0.084568068385124207 0.0082372380420565605 0.00010846022632904351
0.10540774464607239 0.008237193338572979 0.00010846022632904351
0.12998782098293304 0.0082376515492796898 0.00010846023360500112
0.15836842358112335 0.0082339951768517494 0.00010846022632904351
0.19840991497039795 0.0074242404662072659 9.4272312708199024e-05
0.24923647940158844 0.0082391081377863884 0.00010846023360500112
0.29829186201095581 0.0082371076568961143 0.00010846021905308589
0.3547615110874176 0.0082372222095727921 0.00010846024088095874
0.41641384363174438 0.0082372371107339859 0.00010846021905308589
0.48745834827423096 0.0082372352480888367 0.00010846023360500112
0.56730479001998901 0.0082372268661856651 0.00010846022632904351
0.65502983331680298 0.0082373227924108505 0.00010846022632904351
0.75349104404449463 0.0082364864647388458 0.00010846022632904351
0.85975199937820435 0.0082433214411139488 0.00010846022632904351
0.88994342088699341 0.010338898748159409 0.00015230949793476611
0.00010846023360500112 0.012335949577391148 0.00010846023360500112
0.0004587486619129777 0.01233348436653614 0.00010846022632904351
0.00080903741763904691 0.012334597297012806 0.00010846023360500112
0.001159322913736105 0.012334509752690792 0.00010846022632904351
0.0015096657443791628 0.012334517203271389 0.00010846022632904351
0.0018591074040159583 0.012334516271948814 0.00010846022632904351
0.0021932492963969707 0.012334517203271389 0.00010846022632904351
0.0036756403278559446 0.012334517203271389 0.00010846022632904351
0.0066404477693140507 0.012334517203271389 0.00010846022632904351
0.0082372352480888367 0.012334517203271389 0.00010846022632904351
0.012334517203271389 0.012334517203271389 0.00010846022632904351
0.016545793041586876 0.012334517203271389 0.00010846022632904351
0.021889515221118927 0.012334517203271389 0.00010846022632904351
0.029848629608750343 0.012334517203271389 0.00010846022632904351
0.039069484919309616 0.012334517203271389 0.00010846022632904351
0.050889883190393448 0.012334517203271389 0.00010846022632904351
0.06510578840970993 0.012334517203271389 0.00010846022632904351
0.084568068385124207 0.012334511615335941 0.00010846022632904351
0.10540774464607239 0.012334558181464672 0.00010846022632904351
0.12998782098293304 0.012334260158240795 0.00010846023360500112
0.15836842358112335 0.012335140258073807 0.00010846022632904351
0.19840990006923676 0.011510715819895267 9.4272312708199024e-05
0.24923647940158844 0.012333670631051064 0.00010846023360500112
0.29829186201095581 0.012334135361015797 0.00010846021905308589
0.3547615110874176 0.012334554456174374 0.00010846024088095874
0.41641384363174438 0.012334513477981091 0.00010846021905308589
0.48745834827423096 0.012334516271948814 0.00010846023360500112
0.56730479001998901 0.012334523722529411 0.00010846022632904351
0.65502983331680298 0.012334467843174934 0.00010846022632904351
0.75349104404449463 0.012334682978689671 0.00010846022632904351
0.85975199937820435 0.012334905564785004 0.00010846022632904351
0.88994354009628296 0.014433097094297409 0.00015230949793476611
0.00010846023360500112 0.01652558334171772 0.00010846023360500112
0.0004587486619129777 0.016546588391065598 0.00010846022632904351
0.00080903741763904691 0.016545703634619713 0.00010846023360500112
0.001159322913736105 0.016545802354812622 0.00010846022632904351
0.0015096657443791628 0.016545791178941727 0.00010846022632904351
0.0018591074040159583 0.016545793041586876 0.00010846022632904351
0.0021932492963969707 0.016545791178941727 0.00010846022632904351
0.0036756405606865883 0.016545793041586876 0.00010846022632904351
0.006640448234975338 0.016545793041586876 0.00010846022632904351
0.0082372352480888367 0.016545793041586876 0.00010846022632904351
