m24.cube
# Created by: G'MIC (https://gmic.eu)
TITLE "m24"
# LUT size
LUT_3D_SIZE 5
# Data domain
# LUT data points
DOMAIN_MIN 0.000000 0.000000 0.000000
DOMAIN_MAX 0.903226 0.903226 0.903226
0.00010846022632904351 0.00010846022632904351 0.00010846022632904351
0.003698054002597928 0.00010846023360500112 0.00010846023360500112
0.039071880280971527 0.00010846023360500112 0.00010846023360500112
0.19833900034427643 9.4272312708199024e-05 9.4272312708199024e-05
0.6549641489982605 0.00010846023360500112 0.00010846023360500112
0.00010846023360500112 0.0036980542354285717 0.00010846023360500112
0.0036756405606865883 0.0036756405606865883 0.00010846022632904351
0.039069484919309616 0.0036756405606865883 0.00010846022632904351
0.19840990006923676 0.0030520071741193533 9.4272312708199024e-05
0.65502983331680298 0.0036756806075572968 0.00010846022632904351
0.00010846023360500112 0.039071880280971527 0.00010846023360500112
0.0036756405606865883 0.039069484919309616 0.00010846022632904351
0.039069484919309616 0.039069484919309616 0.00010846022632904351
0.19840990006923676 0.0379200279712677 9.4272312708199024e-05
0.65502983331680298 0.039069529622793198 0.00010846022632904351
9.4272312708199024e-05 0.19833900034427643 9.4272312708199024e-05
0.0030520069412887096 0.19840991497039795 9.4272312708199024e-05
0.0379200279712677 0.19840991497039795 9.4272312708199024e-05
0.19656731188297272 0.19656731188297272 7.819136226316914e-05
0.65413773059844971 0.19840991497039795 9.4272312708199024e-05
0.00010846023360500112 0.65496420860290527 0.00010846023360500112
0.0036756806075572968 0.6550297737121582 0.00010846022632904351
0.039069529622793198 0.6550297737121582 0.00010846022632904351
0.19840991497039795 0.65413773059844971 9.4272312708199024e-05
0.65502989292144775 0.65502989292144775 0.00010846022632904351
0.00010846023360500112 0.00010846023360500112 0.003698054002597928
0.0036756403278559446 0.00010846022632904351 0.0036756405606865883
0.039069484919309616 0.00010846022632904351 0.0036756405606865883
0.19840990006923676 9.4272312708199024e-05 0.0030520074069499969
0.6550297737121582 0.00010846022632904351 0.0036756806075572968
0.00010846022632904351 0.0036756403278559446 0.0036756405606865883
0.0036518867127597332 0.0036518867127597332 0.0036518867127597332
0.03906618058681488 0.0036518867127597332 0.0036518867127597332
0.19847680628299713 0.0030325169209390879 0.0030325169209390879
0.65508639812469482 0.0036519116256386042 0.0036519116256386042
0.00010846022632904351 0.039069484919309616 0.0036756405606865883
0.0036518867127597332 0.03906618058681488 0.0036518869455903769
0.03906618058681488 0.03906618058681488 0.0036518867127597332
0.19847680628299713 0.037914950400590897 0.0030325169209390879
0.65508639812469482 0.039066225290298462 0.0036519116256386042
9.4272312708199024e-05 0.19840990006923676 0.0030520074069499969
0.0030325169209390879 0.19847677648067474 0.0030325169209390879
0.037914950400590897 0.19847677648067474 0.0030325169209390879
0.19660411775112152 0.19660411775112152 0.0022081006318330765
0.65417671203613281 0.19847685098648071 0.00303258141502738
0.00010846022632904351 0.6550297737121582 0.0036756806075572968
0.0036519118584692478 0.65508639812469482 0.0036519116256386042
0.039066225290298462 0.65508639812469482 0.0036519116256386042
0.19847685098648071 0.65417677164077759 0.00303258141502738
0.65508639812469482 0.6550864577293396 0.0036519356071949005
0.00010846023360500112 0.00010846023360500112 0.039071880280971527
0.0036756407935172319 0.00010846022632904351 0.039069484919309616
0.039069484919309616 0.00010846022632904351 0.039069484919309616
0.19840990006923676 9.4272312708199024e-05 0.0379200279712677
0.6550297737121582 0.00010846022632904351 0.039069529622793198
0.00010846022632904351 0.0036756403278559446 0.039069484919309616
0.0036518867127597332 0.0036518867127597332 0.03906618058681488
0.03906618058681488 0.0036518867127597332 0.03906618058681488
0.19847680628299713 0.0030325169209390879 0.037914950400590897
0.65508639812469482 0.0036519116256386042 0.039066225290298462
0.00010846022632904351 0.039069484919309616 0.039069484919309616
0.0036518867127597332 0.03906618058681488 0.03906618058681488
0.03906618058681488 0.03906618058681488 0.03906618058681488
0.19847680628299713 0.037914950400590897 0.037914950400590897
0.65508639812469482 0.039066225290298462 0.039066225290298462
9.4272312708199024e-05 0.19840990006923676 0.037920031696557999
0.0030325166881084442 0.19847677648067474 0.037914950400590897
0.037914950400590897 0.19847677648067474 0.037914950400590897
0.19660411775112152 0.19660411775112152 0.03641924262046814
0.65417671203613281 0.19847685098648071 0.037915002554655075
0.00010846022632904351 0.6550297737121582 0.039069529622793198
0.0036519116256386042 0.65508633852005005 0.03906622901558876
0.039066225290298462 0.65508639812469482 0.039066225290298462
0.19847685098648071 0.65417677164077759 0.037915002554655075
0.6550864577293396 0.6550864577293396 0.039066269993782043
9.4272312708199024e-05 9.4272312708199024e-05 0.19833900034427643
0.0030520069412887096 9.4272312708199024e-05 0.19840991497039795
0.0379200279712677 9.4272312708199024e-05 0.19840990006923676
0.19656731188297272 7.819136226316914e-05 0.19656731188297272
0.65413773059844971 9.4272312708199024e-05 0.19840991497039795
9.4272312708199024e-05 0.0030520071741193533 0.19840991497039795
0.0030325169209390879 0.0030325169209390879 0.19847680628299713
0.037914950400590897 0.0030325169209390879 0.19847680628299713
0.19660411775112152 0.0022081006318330765 0.19660411775112152
0.65417671203613281 0.00303258141502738 0.19847685098648071
9.4272312708199024e-05 0.0379200279712677 0.19840991497039795
0.0030325169209390879 0.037914950400590897 0.19847680628299713
0.037914950400590897 0.037914950400590897 0.19847677648067474
0.19660411775112152 0.03641924262046814 0.19660411775112152
0.65417671203613281 0.037915002554655075 0.19847685098648071
7.819136226316914e-05 0.19656731188297272 0.19656731188297272
0.0022081006318330765 0.19660411775112152 0.19660411775112152
0.03641924262046814 0.19660411775112152 0.19660411775112152
0.19411765038967133 0.19411765038967133 0.19411765038967133
0.65314793586730957 0.1966041624546051 0.19660414755344391
9.4272312708199024e-05 0.65413773059844971 0.19840991497039795
0.00303258141502738 0.65417671203613281 0.19847685098648071
0.037915006279945374 0.65417671203613281 0.19847685098648071
0.19660414755344391 0.65314793586730957 0.19660414755344391
0.65417683124542236 0.65417671203613281 0.19847689568996429
0.00010846023360500112 0.00010846023360500112 0.65496420860290527
0.0036756806075572968 0.00010846022632904351 0.6550297737121582
0.039069529622793198 0.00010846022632904351 0.6550297737121582
0.19840991497039795 9.4272312708199024e-05 0.65413773059844971
0.65502989292144775 0.00010846022632904351 0.65502989292144775
0.00010846022632904351 0.0036756806075572968 0.6550297737121582
0.0036519116256386042 0.0036519116256386042 0.65508639812469482
0.03906622901558876 0.0036519116256386042 0.65508639812469482
0.19847685098648071 0.00303258141502738 0.65417671203613281
0.65508651733398438 0.0036519356071949005 0.6550864577293396
0.00010846022632904351 0.039069529622793198 0.6550297737121582
0.0036519116256386042 0.03906622901558876 0.65508639812469482
0.03906622901558876 0.03906622901558876 0.65508639812469482
0.19847685098648071 0.037915002554655075 0.65417677164077759
0.65508639812469482 0.039066269993782043 0.65508639812469482
9.4272312708199024e-05 0.19840991497039795 0.65413773059844971
0.00303258141502738 0.19847685098648071 0.65417671203613281
0.037915006279945374 0.19847685098648071 0.65417671203613281
0.1966041624546051 0.1966041624546051 0.65314793586730957
0.65417671203613281 0.1984768807888031 0.65417677164077759
0.00010846022632904351 0.65502989292144775 0.65502989292144775
0.0036519353743642569 0.65508639812469482 0.65508639812469482
0.039066269993782043 0.65508639812469482 0.65508639812469482
0.1984768807888031 0.65417671203613281 0.65417671203613281
0.65508651733398438 0.65508651733398438 0.65508651733398438
