m6ob10.cube
# Created by: G'MIC (https://gmic.eu)
TITLE "m6ob10"
# LUT size
LUT_3D_SIZE 5
# Data domain
# LUT data points
DOMAIN_MIN 0.000000 0.000000 0.000000
DOMAIN_MAX 0.903226 0.903226 0.903226
0.040042713284492493 0.040042713284492493 0.040042713284492493
0.1225704550743103 0.040045280009508133 0.040045280009508133
0.29211902618408203 0.040045280009508133 0.040045280009508133
0.53838372230529785 0.040059585124254227 0.040059585124254227
0.84761732816696167 0.040045320987701416 0.040045320987701416
0.040045280009508133 0.1225704699754715 0.040045280009508133
0.12261182069778442 0.12261182814836502 0.040046025067567825
0.29211699962615967 0.12261182814836502 0.040046025067567825
0.53845202922821045 0.12232833355665207 0.040056768804788589
0.84762084484100342 0.12261174619197845 0.040046039968729019
0.040045280009508133 0.29211899638175964 0.040045280009508133
0.12261182814836502 0.29211699962615967 0.040046025067567825
0.29211699962615967 0.29211699962615967 0.040046025067567825
0.53845202922821045 0.2916330099105835 0.040056768804788589
0.84762084484100342 0.29211699962615967 0.040046039968729019
0.040059581398963928 0.53838372230529785 0.040059585124254227
0.12232833355665207 0.53845202922821045 0.040056772530078888
0.29163303971290588 0.53845202922821045 0.040056772530078888
0.53791719675064087 0.53791719675064087 0.040105577558279037
0.84750032424926758 0.53845202922821045 0.040056820958852768
0.040045324712991714 0.84761732816696167 0.040045317262411118
0.12261174619197845 0.84762084484100342 0.040046043694019318
0.29211699962615967 0.84762084484100342 0.040046039968729019
0.53845202922821045 0.84750032424926758 0.040056817233562469
0.84762102365493774 0.84762102365493774 0.040046054869890213
0.040045280009508133 0.040045280009508133 0.1225704625248909
0.12261182069778442 0.040046025067567825 0.12261182814836502
0.29211699962615967 0.040046025067567825 0.12261182814836502
0.53845202922821045 0.040056768804788589 0.12232834100723267
0.84762084484100342 0.040046039968729019 0.12261174619197845
0.040046025067567825 0.12261182814836502 0.12261182814836502
0.12265468388795853 0.12265469133853912 0.12265469133853912
0.29211276769638062 0.12265468388795853 0.12265468388795853
0.5385165810585022 0.12236226350069046 0.12236226350069046
0.84762090444564819 0.12265463918447495 0.12265463918447495
0.040046025067567825 0.29211699962615967 0.12261182814836502
0.12265468388795853 0.29211276769638062 0.12265468388795853
0.29211276769638062 0.29211276769638062 0.12265469133853912
0.53851664066314697 0.29162877798080444 0.12236226350069046
0.84762096405029297 0.29211276769638062 0.12265463918447495
0.040056768804788589 0.53845202922821045 0.12232834100723267
0.12236226350069046 0.53851664066314697 0.12236227095127106
0.29162877798080444 0.53851664066314697 0.12236227095127106
0.53795826435089111 0.53795826435089111 0.12201389670372009
0.84750211238861084 0.53851664066314697 0.1223621591925621
0.040046039968729019 0.84762084484100342 0.12261173874139786
0.12265464663505554 0.84762096405029297 0.12265463918447495
0.29211276769638062 0.84762096405029297 0.12265463918447495
0.53851664066314697 0.84750205278396606 0.1223621591925621
0.84762108325958252 0.84762108325958252 0.12265460193157196
0.040045280009508133 0.040045283734798431 0.29211899638175964
0.12261182814836502 0.040046025067567825 0.29211699962615967
0.29211699962615967 0.040046025067567825 0.29211699962615967
0.53845202922821045 0.040056768804788589 0.2916330099105835
0.84762084484100342 0.040046039968729019 0.29211699962615967
0.040046025067567825 0.12261182814836502 0.29211699962615967
0.12265468388795853 0.12265469133853912 0.29211273789405823
0.29211273789405823 0.12265469133853912 0.29211273789405823
0.53851664066314697 0.12236226350069046 0.29162877798080444
0.84762096405029297 0.12265463918447495 0.29211276769638062
0.040046025067567825 0.29211699962615967 0.29211699962615967
0.12265468388795853 0.29211276769638062 0.29211276769638062
0.29211273789405823 0.29211276769638062 0.29211273789405823
0.53851664066314697 0.29162877798080444 0.29162877798080444
0.84762096405029297 0.29211276769638062 0.29211276769638062
0.040056768804788589 0.53845202922821045 0.2916330099105835
0.12236226350069046 0.53851664066314697 0.29162877798080444
0.29162877798080444 0.53851664066314697 0.29162877798080444
0.53795826435089111 0.53795826435089111 0.29101249575614929
0.84750211238861084 0.53851664066314697 0.29162883758544922
0.040046039968729019 0.84762084484100342 0.29211702942848206
0.12265463918447495 0.84762096405029297 0.292112797498703
0.29211276769638062 0.84762096405029297 0.29211276769638062
0.53851664066314697 0.84750211238861084 0.29162880778312683
0.84762108325958252 0.84762108325958252 0.292112797498703
0.040059585124254227 0.040059585124254227 0.53838372230529785
0.12232834845781326 0.040056768804788589 0.53845202922821045
0.29163303971290588 0.040056768804788589 0.53845202922821045
0.53791719675064087 0.040105573832988739 0.53791719675064087
0.84750032424926758 0.040056820958852768 0.53845202922821045
0.040056768804788589 0.12232834845781326 0.53845202922821045
0.12236226350069046 0.12236226350069046 0.5385165810585022
0.29162877798080444 0.12236226350069046 0.53851664066314697
0.53795826435089111 0.12201389670372009 0.53795826435089111
0.84750211238861084 0.1223621591925621 0.53851664066314697
0.040056768804788589 0.2916330099105835 0.53845202922821045
0.12236226350069046 0.29162877798080444 0.5385165810585022
0.29162874817848206 0.29162877798080444 0.5385165810585022
0.53795826435089111 0.29101249575614929 0.53795826435089111
0.84750211238861084 0.29162880778312683 0.53851664066314697
0.040105573832988739 0.53791719675064087 0.53791719675064087
0.1220138892531395 0.53795826435089111 0.53795826435089111
0.29101252555847168 0.53795826435089111 0.53795826435089111
0.5372549295425415 0.5372549295425415 0.5372549295425415
0.84734290838241577 0.53795838356018066 0.53795832395553589
0.040056817233562469 0.84750032424926758 0.53845202922821045
0.1223621591925621 0.84750211238861084 0.53851664066314697
0.29162880778312683 0.84750211238861084 0.53851664066314697
0.53795838356018066 0.84734296798706055 0.53795838356018066
0.84750223159790039 0.84750217199325562 0.53851675987243652
0.040045320987701416 0.040045317262411118 0.84761732816696167
0.12261174619197845 0.040046039968729019 0.84762084484100342
0.29211699962615967 0.040046039968729019 0.84762084484100342
0.53845202922821045 0.040056817233562469 0.84750032424926758
0.84762102365493774 0.040046054869890213 0.84762102365493774
0.040046043694019318 0.12261174619197845 0.84762084484100342
0.12265463918447495 0.12265463918447495 0.84762096405029297
0.29211276769638062 0.12265464663505554 0.84762090444564819
0.53851664066314697 0.1223621666431427 0.84750205278396606
0.84762108325958252 0.12265460193157196 0.84762108325958252
0.040046043694019318 0.29211702942848206 0.84762084484100342
0.12265463918447495 0.292112797498703 0.84762096405029297
0.292112797498703 0.292112797498703 0.84762096405029297
0.53851664066314697 0.29162880778312683 0.84750205278396606
0.84762108325958252 0.292112797498703 0.84762108325958252
0.040056817233562469 0.53845202922821045 0.84750032424926758
0.1223621591925621 0.53851664066314697 0.84750211238861084
0.29162883758544922 0.53851664066314697 0.84750205278396606
0.53795832395553589 0.53795832395553589 0.84734290838241577
0.84750223159790039 0.53851664066314697 0.84750217199325562
0.040046054869890213 0.84762102365493774 0.84762096405029297
0.12265459448099136 0.84762108325958252 0.84762108325958252
0.292112797498703 0.84762108325958252 0.84762108325958252
0.53851675987243652 0.84750223159790039 0.84750223159790039
0.84762120246887207 0.84762120246887207 0.84762120246887207
