m6ob10.cube
# Created by: G'MIC (https://gmic.eu)
TITLE "m6ob10"
# LUT size
LUT_3D_SIZE 32
# Data domain
DOMAIN_MIN 0.0 0.0 0.0
DOMAIN_MAX 1.0 1.0 1.0
# LUT data points
0.040042713284492493 0.040042713284492493 0.040042713284492493
0.044014882296323776 0.040043249726295471 0.040043249726295471
0.050515800714492798 0.040045414119958878 0.040045417845249176
0.062237359583377838 0.040045276284217834 0.040045276284217834
0.074181213974952698 0.040045280009508133 0.040045280009508133
0.087267912924289703 0.040045280009508133 0.040045280009508133
0.10417402535676956 0.040045280009508133 0.040045280009508133
0.1225704550743103 0.040045280009508133 0.040045280009508133
0.14087635278701782 0.040045280009508133 0.040045280009508133
0.16302241384983063 0.040045280009508133 0.040045280009508133
0.18520575761795044 0.040045280009508133 0.040045280009508133
0.21126709878444672 0.040045280009508133 0.040045280009508133
0.23615312576293945 0.040045280009508133 0.040045280009508133
0.26348397135734558 0.040045280009508133 0.040045280009508133
0.29211902618408203 0.040045280009508133 0.040045280009508133
0.32336336374282837 0.040045280009508133 0.040045280009508133
0.35470184683799744 0.040045280009508133 0.040045280009508133
0.38725274801254272 0.040045280009508133 0.040045280009508133
0.42116501927375793 0.040045283734798431 0.040045280009508133
0.45497682690620422 0.040045194327831268 0.040045194327831268
0.49235391616821289 0.040050745010375977 0.040050745010375977
0.53838372230529785 0.040059585124254227 0.040059585124254227
0.58740317821502686 0.040041942149400711 0.040041949599981308
0.62956005334854126 0.040044613182544708 0.040044613182544708
0.66981750726699829 0.040045347064733505 0.040045347064733505
0.71190857887268066 0.040045280009508133 0.040045280009508133
0.75762933492660522 0.040045280009508133 0.040045280009508133
0.80177372694015503 0.040045280009508133 0.040045280009508133
0.84761732816696167 0.040045320987701416 0.040045320987701416
0.8947182297706604 0.040044106543064117 0.040044106543064117
0.94319725036621094 0.040060285478830338 0.040060289204120636
0.95713800191879272 0.0401596799492836 0.040159676223993301
0.040043249726295471 0.044014886021614075 0.040043249726295471
0.044055458158254623 0.044055458158254623 0.040041495114564896
0.05051209032535553 0.044053971767425537 0.040044013410806656
0.062233816832304001 0.044054005295038223 0.040043793618679047
0.07420087605714798 0.044054005295038223 0.04004380851984024
0.087288409471511841 0.044054001569747925 0.04004380851984024
0.10414734482765198 0.044054001569747925 0.04004380851984024
0.12261461466550827 0.044054001569747925 0.04004380851984024
0.14084996283054352 0.044054009020328522 0.04004380851984024
0.16306549310684204 0.044054009020328522 0.04004380851984024
0.18518075346946716 0.044054001569747925 0.04004380851984024
0.21128776669502258 0.044054001569747925 0.04004380851984024
0.23615099489688873 0.044054001569747925 0.04004380851984024
0.26350384950637817 0.044054005295038223 0.04004380851984024
0.29211708903312683 0.044054005295038223 0.04004380851984024
0.32336091995239258 0.044054001569747925 0.04004380851984024
0.35472419857978821 0.044054005295038223 0.04004380851984024
0.38722714781761169 0.044054009020328522 0.04004380851984024
0.42120906710624695 0.044053971767425537 0.040043812245130539
0.45493799448013306 0.044054482132196426 0.040043842047452927
0.49261549115180969 0.044054336845874786 0.04004669189453125
0.53845006227493286 0.044014666229486465 0.040055256336927414
0.58748322725296021 0.0440388023853302 0.040041621774435043
0.62954115867614746 0.044054973870515823 0.04004303365945816
0.6698451042175293 0.04405396431684494 0.040043901652097702
0.71191895008087158 0.044054001569747925 0.040043801069259644
0.75760865211486816 0.044054005295038223 0.04004380851984024
0.80179661512374878 0.044054009020328522 0.04004380851984024
0.84762203693389893 0.044053934514522552 0.040043812245130539
0.89469903707504272 0.044054601341485977 0.040042951703071594
0.94289761781692505 0.044043559581041336 0.040062222629785538
0.95659482479095459 0.043959330767393112 0.040185682475566864
0.040045417845249176 0.050515800714492798 0.040045414119958878
0.044053971767425537 0.05051209032535553 0.040044009685516357
0.050511926412582397 0.050511926412582397 0.040046412497758865
0.062234669923782349 0.050511971116065979 0.040046203881502151
0.074201487004756927 0.050511971116065979 0.040046222507953644
0.087286166846752167 0.050511971116065979 0.040046222507953644
0.10415052622556686 0.050511971116065979 0.040046222507953644
0.12261155247688293 0.050511971116065979 0.040046222507953644
0.14085331559181213 0.050511971116065979 0.040046222507953644
0.1630624532699585 0.050511971116065979 0.040046222507953644
0.18518278002738953 0.050511971116065979 0.040046222507953644
0.21128669381141663 0.050511971116065979 0.040046222507953644
0.23615224659442902 0.050511967390775681 0.040046222507953644
0.26350301504135132 0.050511971116065979 0.040046222507953644
0.29211694002151489 0.050511971116065979 0.040046222507953644
0.32336214184761047 0.050511971116065979 0.040046222507953644
0.35472196340560913 0.050511971116065979 0.040046218782663345
0.38723048567771912 0.050511967390775681 0.040046222507953644
0.42120468616485596 0.050511971116065979 0.040046237409114838
0.45495280623435974 0.050512377172708511 0.040046114474534988
0.49261954426765442 0.050505682826042175 0.040049079805612564
0.5384519100189209 0.050345253199338913 0.040056873112916946
0.58748334646224976 0.050516538321971893 0.04004393145442009
0.62954354286193848 0.050511788576841354 0.040045507252216339
0.66984516382217407 0.050511956214904785 0.04004630446434021
0.7119174599647522 0.050511971116065979 0.040046211332082748
0.75761014223098755 0.050511971116065979 0.040046222507953644
0.80179649591445923 0.050511963665485382 0.040046222507953644
0.84762156009674072 0.050512060523033142 0.040046229958534241
0.89468467235565186 0.050510726869106293 0.040045488625764847
0.94289225339889526 0.050526261329650879 0.040064383298158646
0.95658093690872192 0.051007416099309921 0.04018731415271759
0.040045280009508133 0.06223735585808754 0.040045272558927536
0.044054001569747925 0.062233816832304001 0.040043797343969345
0.050511971116065979 0.062234669923782349 0.040046203881502151
0.062234688550233841 0.062234684824943542 0.040046002715826035
0.074201323091983795 0.062234673649072647 0.04004601389169693
0.087286435067653656 0.062234677374362946 0.040046010166406631
0.10415023565292358 0.062234677374362946 0.040046010166406631
0.12261186540126801 0.062234677374362946 0.040046010166406631
0.14085301756858826 0.062234673649072647 0.040046010166406631
0.1630626916885376 0.062234677374362946 0.040046010166406631
0.18518261611461639 0.062234677374362946 0.040046010166406631
0.21128681302070618 0.062234677374362946 0.040046010166406631
0.23615214228630066 0.062234677374362946 0.040046010166406631
0.26350301504135132 0.062234677374362946 0.040046010166406631
0.29211699962615967 0.062234677374362946 0.040046010166406631
0.32336193323135376 0.062234677374362946 0.040046010166406631
0.35472223162651062 0.062234677374362946 0.040046010166406631
0.38723006844520569 0.062234673649072647 0.040046010166406631
0.42120563983917236 0.062234725803136826 0.040046025067567825
0.4549524188041687 0.062234237790107727 0.040045905858278275
0.49261966347694397 0.062235482037067413 0.040048867464065552
0.53845202922821045 0.062135063111782074 0.040056761354207993
0.58748352527618408 0.062234584242105484 0.04004376009106636
0.62954354286193848 0.062234204262495041 0.040045294910669327
0.66984504461288452 0.062234703451395035 0.040046099573373795
0.71191763877868652 0.062234677374362946 0.040046010166406631
0.75760996341705322 0.062234673649072647 0.040046010166406631
0.80179649591445923 0.062234684824943542 0.04004601389169693
0.84762078523635864 0.062234595417976379 0.040046032518148422
0.89468485116958618 0.062235042452812195 0.040045265108346939
0.94289249181747437 0.06223580613732338 0.040064215660095215
0.95658177137374878 0.062489971518516541 0.040187250822782516
0.040045280009508133 0.074181221425533295 0.040045280009508133
0.044054001569747925 0.074200883507728577 0.040043812245130539
0.050511971116065979 0.074201487004756927 0.040046222507953644
0.062234677374362946 0.074201323091983795 0.04004601389169693
0.074201345443725586 0.074201345443725586 0.040046028792858124
0.087286405265331268 0.074201345443725586 0.040046025067567825
0.10415026545524597 0.074201345443725586 0.040046025067567825
0.12261182069778442 0.074201337993144989 0.040046025067567825
0.14085303246974945 0.074201345443725586 0.040046025067567825
0.1630626767873764 0.074201345443725586 0.040046025067567825
0.18518264591693878 0.074201345443725586 0.040046025067567825
0.21128681302070618 0.074201337993144989 0.040046025067567825
0.23615214228630066 0.074201345443725586 0.040046025067567825
0.26350304484367371 0.074201345443725586 0.040046025067567825
0.29211699962615967 0.074201345443725586 0.040046025067567825
0.32336199283599854 0.074201337993144989 0.040046025067567825
0.35472220182418823 0.074201345443725586 0.040046025067567825
0.38723012804985046 0.074201352894306183 0.040046025067567825
0.42120558023452759 0.074201300740242004 0.040046036243438721
0.45495244860649109 0.074201449751853943 0.040045924484729767
0.49261963367462158 0.074202194809913635 0.040048886090517044
0.53845202922821045 0.074017032980918884 0.040056768804788589
0.58748346567153931 0.074191838502883911 0.040043767541646957
0.62954354286193848 0.0742015540599823 0.040045306086540222
0.6698451042175293 0.074201375246047974 0.040046114474534988
0.71191763877868652 0.074201330542564392 0.040046017616987228
0.757610023021698 0.074201345443725586 0.040046025067567825
0.80179643630981445 0.074201337993144989 0.040046025067567825
0.84762084484100342 0.074201352894306183 0.040046043694019318
0.89468491077423096 0.074201695621013641 0.040045280009508133
0.94289249181747437 0.074194289743900299 0.040064223110675812
0.95658177137374878 0.074545137584209442 0.040187247097492218
0.040045280009508133 0.087267912924289703 0.040045280009508133
0.044054005295038223 0.087288394570350647 0.04004380851984024
0.050511971116065979 0.087286166846752167 0.040046222507953644
0.062234677374362946 0.087286427617073059 0.04004601389169693
0.074201337993144989 0.087286397814750671 0.040046028792858124
0.087286405265331268 0.087286397814750671 0.040046025067567825
0.10415025800466537 0.087286397814750671 0.040046025067567825
0.12261183559894562 0.087286397814750671 0.040046025067567825
0.14085303246974945 0.087286405265331268 0.040046025067567825
0.1630626767873764 0.087286397814750671 0.040046025067567825
0.18518263101577759 0.087286397814750671 0.040046025067567825
0.21128679811954498 0.087286405265331268 0.040046025067567825
0.23615214228630066 0.087286397814750671 0.040046025067567825
0.26350304484367371 0.087286405265331268 0.040046025067567825
0.29211696982383728 0.087286397814750671 0.040046025067567825
0.32336199283599854 0.087286397814750671 0.040046025067567825
0.35472220182418823 0.087286405265331268 0.040046025067567825
0.38723012804985046 0.087286397814750671 0.040046025067567825
0.42120563983917236 0.087286382913589478 0.040046036243438721
0.4549524188041687 0.087286822497844696 0.040045924484729767
0.49261963367462158 0.087282650172710419 0.040048886090517044
0.53845202922821045 0.086989909410476685 0.040056768804788589
0.58748352527618408 0.087282463908195496 0.040043767541646957
0.62954354286193848 0.087287090718746185 0.040045306086540222
0.66984516382217407 0.087286308407783508 0.04004611074924469
0.71191763877868652 0.087286412715911865 0.040046021342277527
0.757610023021698 0.087286405265331268 0.040046025067567825
0.80179643630981445 0.087286397814750671 0.040046025067567825
0.84762084484100342 0.087286442518234253 0.040046039968729019
0.89468485116958618 0.087286017835140228 0.040045280009508133
0.94289249181747437 0.087284967303276062 0.040064223110675812
0.95658177137374878 0.08793303370475769 0.040187247097492218
0.040045280009508133 0.10417402535676956 0.040045280009508133
0.044054005295038223 0.10414734482765198 0.04004380851984024
0.050511967390775681 0.10415052622556686 0.040046222507953644
0.062234677374362946 0.10415022820234299 0.04004601389169693
0.074201337993144989 0.10415026545524597 0.040046025067567825
0.087286405265331268 0.10415025800466537 0.040046025067567825
0.10415025800466537 0.10415025800466537 0.040046025067567825
0.12261182069778442 0.10415025800466537 0.040046025067567825
0.14085303246974945 0.10415025800466537 0.040046025067567825
0.1630626767873764 0.10415025800466537 0.040046025067567825
0.18518264591693878 0.10415025800466537 0.040046025067567825
0.21128681302070618 0.10415025800466537 0.040046025067567825
0.23615214228630066 0.10415025800466537 0.040046025067567825
0.26350304484367371 0.10415025800466537 0.040046025067567825
0.29211699962615967 0.10415025800466537 0.040046025067567825
0.32336196303367615 0.10415025800466537 0.040046025067567825
0.35472220182418823 0.10415025800466537 0.040046025067567825
0.38723012804985046 0.10415025800466537 0.040046025067567825
0.42120558023452759 0.10415030270814896 0.040046032518148422
0.45495244860649109 0.10415000468492508 0.040045920759439468
0.49261960387229919 0.10414835810661316 0.040048882365226746
0.53845202922821045 0.10387884080410004 0.040056768804788589
0.58748352527618408 0.104157954454422 0.040043767541646957
0.62954354286193848 0.10414899885654449 0.040045306086540222
0.6698451042175293 0.10415039211511612 0.040046114474534988
0.71191763877868652 0.10415025800466537 0.040046021342277527
0.757610023021698 0.10415026545524597 0.040046025067567825
0.80179649591445923 0.10415027290582657 0.040046025067567825
0.84762084484100342 0.10415025800466537 0.040046039968729019
0.89468485116958618 0.10414980351924896 0.040045280009508133
0.94289249181747437 0.10416218638420105 0.040064223110675812
0.95658177137374878 0.10493939369916916 0.040187247097492218
0.040045280009508133 0.1225704699754715 0.040045280009508133
0.044054005295038223 0.12261461466550827 0.040043812245130539
0.050511971116065979 0.12261155247688293 0.040046222507953644
0.062234677374362946 0.12261186540126801 0.04004601389169693
0.074201337993144989 0.12261182814836502 0.040046028792858124
0.087286405265331268 0.12261182069778442 0.040046025067567825
0.10415025800466537 0.12261182814836502 0.040046025067567825
0.12261182069778442 0.12261182814836502 0.040046025067567825
0.14085303246974945 0.12261183559894562 0.040046025067567825
0.1630626767873764 0.12261182814836502 0.040046025067567825
0.18518264591693878 0.12261182069778442 0.040046025067567825
0.21128681302070618 0.12261182814836502 0.040046025067567825
0.23615214228630066 0.12261182814836502 0.040046025067567825
0.26350304484367371 0.12261182814836502 0.040046025067567825
0.29211699962615967 0.12261182814836502 0.040046025067567825
0.32336196303367615 0.12261182069778442 0.040046025067567825
0.35472220182418823 0.12261182814836502 0.040046025067567825
0.38723012804985046 0.12261182814836502 0.040046025067567825
0.42120558023452759 0.12261181324720383 0.040046036243438721
0.4549524188041687 0.12261179834604263 0.040045920759439468
0.49261960387229919 0.12261469662189484 0.040048882365226746
0.53845202922821045 0.12232833355665207 0.040056768804788589
0.58748346567153931 0.12259611487388611 0.040043771266937256
0.62954354286193848 0.12261318415403366 0.040045306086540222
0.66984504461288452 0.12261170148849487 0.040046114474534988
0.71191763877868652 0.12261185050010681 0.040046017616987228
0.757610023021698 0.12261182069778442 0.040046025067567825
0.80179643630981445 0.12261183559894562 0.040046025067567825
0.84762084484100342 0.12261174619197845 0.040046039968729019
0.89468485116958618 0.12261330336332321 0.040045280009508133
0.94289249181747437 0.12258775532245636 0.040064223110675812
0.95658177137374878 0.123015396296978 0.040187247097492218
0.040045280009508133 0.14087635278701782 0.040045280009508133
0.044054005295038223 0.14084996283054352 0.04004380851984024
0.050511971116065979 0.14085333049297333 0.040046222507953644
0.062234677374362946 0.14085301756858826 0.040046017616987228
0.074201337993144989 0.14085304737091064 0.040046025067567825
0.087286405265331268 0.14085304737091064 0.040046025067567825
0.10415026545524597 0.14085304737091064 0.040046025067567825
0.12261183559894562 0.14085304737091064 0.040046025067567825
0.14085303246974945 0.14085304737091064 0.040046025067567825
0.1630626767873764 0.14085304737091064 0.040046025067567825
0.18518263101577759 0.14085304737091064 0.040046025067567825
0.21128681302070618 0.14085303246974945 0.040046025067567825
0.23615215718746185 0.14085303246974945 0.040046025067567825
0.26350304484367371 0.14085303246974945 0.040046025067567825
0.29211699962615967 0.14085304737091064 0.040046025067567825
0.32336193323135376 0.14085304737091064 0.040046025067567825
0.35472220182418823 0.14085304737091064 0.040046025067567825
0.38723012804985046 0.14085303246974945 0.040046025067567825
0.42120558023452759 0.14085301756858826 0.040046036243438721
0.45495247840881348 0.1408533900976181 0.040045920759439468
0.49261960387229919 0.14084778726100922 0.040048882365226746
0.53845202922821045 0.14044865965843201 0.040056768804788589
0.58748352527618408 0.14086189866065979 0.040043767541646957
0.62954354286193848 0.140851691365242 0.040045306086540222
0.66984504461288452 0.1408531665802002 0.040046114474534988
0.71191763877868652 0.14085303246974945 0.040046017616987228
0.757610023021698 0.14085304737091064 0.040046025067567825
0.80179637670516968 0.14085303246974945 0.040046025067567825
0.84762084484100342 0.1408531665802002 0.040046039968729019
0.89468485116958618 0.140851691365242 0.040045280009508133
0.94289249181747437 0.14086881279945374 0.040064223110675812
0.95658177137374878 0.1419718861579895 0.040187247097492218
0.040045280009508133 0.16302244365215302 0.040045280009508133
0.044054005295038223 0.16306547820568085 0.040043812245130539
0.050511967390775681 0.1630624532699585 0.040046222507953644
0.062234677374362946 0.1630626916885376 0.040046010166406631
0.074201337993144989 0.1630626767873764 0.040046025067567825
0.087286405265331268 0.1630626767873764 0.040046025067567825
0.10415025800466537 0.1630626767873764 0.040046025067567825
0.12261182069778442 0.1630626916885376 0.040046025067567825
0.14085303246974945 0.1630626916885376 0.040046025067567825
0.1630626767873764 0.1630626767873764 0.040046028792858124
0.18518263101577759 0.1630626767873764 0.040046025067567825
0.21128681302070618 0.1630626916885376 0.040046025067567825
0.23615215718746185 0.1630626767873764 0.040046025067567825
0.26350304484367371 0.1630626767873764 0.040046028792858124
0.29211699962615967 0.1630626767873764 0.040046025067567825
0.32336199283599854 0.1630626767873764 0.040046025067567825
0.35472220182418823 0.1630626767873764 0.040046025067567825
0.38723012804985046 0.1630626767873764 0.040046025067567825
0.42120558023452759 0.16306270658969879 0.040046036243438721
0.45495244860649109 0.16306242346763611 0.040045920759439468
0.49261960387229919 0.16306553781032562 0.040048882365226746
0.53845202922821045 0.16271865367889404 0.040056768804788589
0.58748352527618408 0.16304728388786316 0.040043767541646957
0.62954354286193848 0.16306409239768982 0.040045309811830521
0.66984504461288452 0.16306257247924805 0.040046114474534988
0.71191763877868652 0.1630626916885376 0.040046021342277527
0.757610023021698 0.1630626767873764 0.040046025067567825
0.80179643630981445 0.1630626916885376 0.040046025067567825
0.84762084484100342 0.16306254267692566 0.040046039968729019
0.89468485116958618 0.16306431591510773 0.040045280009508133
0.94289249181747437 0.16303712129592896 0.040064223110675812
0.95658177137374878 0.16358497738838196 0.040187250822782516
0.040045280009508133 0.18520575761795044 0.040045283734798431
0.044054009020328522 0.18518075346946716 0.040043812245130539
0.050511971116065979 0.18518276512622833 0.040046222507953644
0.062234677374362946 0.18518261611461639 0.04004601389169693
0.074201337993144989 0.18518263101577759 0.040046028792858124
0.087286405265331268 0.18518263101577759 0.040046025067567825
0.10415025800466537 0.18518263101577759 0.040046025067567825
0.12261182069778442 0.18518263101577759 0.040046025067567825
0.14085304737091064 0.18518263101577759 0.040046025067567825
0.1630626767873764 0.18518263101577759 0.040046025067567825
0.18518264591693878 0.18518263101577759 0.040046025067567825
0.21128681302070618 0.18518263101577759 0.040046025067567825
0.23615214228630066 0.18518263101577759 0.040046025067567825
0.26350304484367371 0.18518264591693878 0.040046025067567825
0.29211699962615967 0.18518264591693878 0.040046025067567825
0.32336196303367615 0.18518263101577759 0.040046025067567825
0.35472220182418823 0.18518263101577759 0.040046025067567825
0.38723012804985046 0.18518264591693878 0.040046025067567825
0.42120563983917236 0.18518258631229401 0.040046032518148422
0.45495244860649109 0.18518304824829102 0.040045924484729767
0.49261960387229919 0.18517684936523438 0.040048882365226746
0.53845202922821045 0.18472450971603394 0.040056768804788589
0.58748352527618408 0.18519307672977448 0.040043767541646957
0.6295434832572937 0.18518161773681641 0.040045306086540222
0.6698451042175293 0.18518270552158356 0.040046114474534988
0.71191763877868652 0.18518263101577759 0.040046021342277527
0.757610023021698 0.18518263101577759 0.040046025067567825
0.80179637670516968 0.18518261611461639 0.040046025067567825
0.84762084484100342 0.18518275022506714 0.040046039968729019
0.89468485116958618 0.18518157303333282 0.040045280009508133
0.94289249181747437 0.1851944625377655 0.040064223110675812
0.95658177137374878 0.18638429045677185 0.040187250822782516
0.040045280009508133 0.21126709878444672 0.040045280009508133
0.044054005295038223 0.21128776669502258 0.040043812245130539
0.050511967390775681 0.21128669381141663 0.040046222507953644
0.062234677374362946 0.21128681302070618 0.040046017616987228
0.074201345443725586 0.21128681302070618 0.040046028792858124
0.087286405265331268 0.21128679811954498 0.040046025067567825
0.10415025800466537 0.21128679811954498 0.040046028792858124
0.12261182814836502 0.21128679811954498 0.040046025067567825
0.14085303246974945 0.21128681302070618 0.040046025067567825
0.1630626767873764 0.21128679811954498 0.040046025067567825
0.18518263101577759 0.21128681302070618 0.040046025067567825
0.21128681302070618 0.21128681302070618 0.040046025067567825
0.23615215718746185 0.21128679811954498 0.040046025067567825
0.26350304484367371 0.21128679811954498 0.040046025067567825
0.29211699962615967 0.21128681302070618 0.040046025067567825
0.32336199283599854 0.21128681302070618 0.040046025067567825
0.35472220182418823 0.21128681302070618 0.040046025067567825
0.38723012804985046 0.21128679811954498 0.040046025067567825
0.42120563983917236 0.21128685772418976 0.040046032518148422
0.45495244860649109 0.21128633618354797 0.040045920759439468
0.49261960387229919 0.21129018068313599 0.040048878639936447
0.53845202922821045 0.21093225479125977 0.040056768804788589
0.58748346567153931 0.21127797663211823 0.040043767541646957
0.62954354286193848 0.21128731966018677 0.040045306086540222
0.66984504461288452 0.2112867534160614 0.040046114474534988
0.71191763877868652 0.21128681302070618 0.040046017616987228
0.757610023021698 0.21128679811954498 0.040046025067567825
0.80179637670516968 0.21128681302070618 0.040046025067567825
0.84762084484100342 0.21128667891025543 0.040046039968729019
0.89468485116958618 0.2112884521484375 0.040045280009508133
0.94289249181747437 0.2112642228603363 0.040064219385385513
0.95658177137374878 0.21189039945602417 0.040187247097492218
0.040045280009508133 0.23615312576293945 0.040045283734798431
0.044054005295038223 0.23615097999572754 0.040043812245130539
0.050511967390775681 0.23615224659442902 0.040046222507953644
0.062234677374362946 0.23615214228630066 0.040046010166406631
